src/assets/images/svg/languages/logo-react.svg

<svg width="36" height="34" viewBox="0 0 36 34" fill="none" xmlns="http://www.w3.org/2000/svg">
<path d="M36 17.0037C36 14.6201 33.0135 12.3611 28.4346 10.9603C29.4912 6.29575 29.0216 2.58464 26.9523 1.3965C26.4753 1.1178 25.9177 0.985789 25.3086 0.985789V2.62132C25.6461 2.62132 25.9177 2.68732 26.1451 2.81201C27.1431 3.38407 27.576 5.56233 27.2385 8.364C27.1578 9.05341 27.0257 9.7795 26.8642 10.5203C25.426 10.1682 23.8557 9.89684 22.2046 9.72082C21.214 8.364 20.1867 7.13185 19.1521 6.05372C21.5442 3.83146 23.7896 2.61398 25.3159 2.61398V0.978455C23.298 0.978455 20.6563 2.41596 17.9853 4.90959C15.3143 2.43063 12.6726 1.00779 10.6547 1.00779V2.64332C12.1737 2.64332 14.4264 3.85346 16.8186 6.06106C15.7913 7.13918 14.764 8.364 13.788 9.72082C12.1296 9.89684 10.5593 10.1682 9.12108 10.5276C8.9523 9.79417 8.82756 9.08275 8.7395 8.40067C8.39462 5.599 8.82022 3.42074 9.81084 2.84134C10.031 2.70933 10.3172 2.65065 10.6547 2.65065V1.01513C10.0383 1.01513 9.48064 1.14714 8.99633 1.42584C6.93437 2.61398 6.47207 6.31775 7.53608 10.9676C2.97187 12.3758 0 14.6274 0 17.0037C0 19.3873 2.98655 21.6462 7.56543 23.0471C6.50876 27.7116 6.97839 31.4227 9.0477 32.6109C9.52466 32.8896 10.0823 33.0216 10.6987 33.0216C12.7167 33.0216 15.3583 31.5841 18.0294 29.0905C20.7004 31.5694 23.342 32.9922 25.36 32.9922C25.9764 32.9922 26.534 32.8602 27.0183 32.5815C29.0803 31.3934 29.5426 27.6896 28.4786 23.0397C33.0281 21.6389 36 19.38 36 17.0037ZM26.446 12.1118C26.1745 13.0579 25.8369 14.0333 25.4554 15.0088C25.1545 14.422 24.839 13.8353 24.4941 13.2486C24.1565 12.6618 23.797 12.0898 23.4374 11.5324C24.4794 11.6864 25.4847 11.8771 26.446 12.1118ZM23.0852 19.9227C22.5128 20.9128 21.9258 21.8516 21.3168 22.7244C20.2234 22.8197 19.1154 22.871 18 22.871C16.892 22.871 15.7839 22.8197 14.6979 22.7317C14.0889 21.8589 13.4945 20.9275 12.9221 19.9447C12.3645 18.9839 11.8581 18.0085 11.3958 17.0257C11.8508 16.0429 12.3645 15.0601 12.9148 14.0993C13.4872 13.1092 14.0742 12.1704 14.6832 11.2977C15.7766 11.2023 16.8846 11.151 18 11.151C19.108 11.151 20.2161 11.2023 21.3021 11.2903C21.9111 12.1631 22.5055 13.0946 23.0779 14.0773C23.6355 15.0381 24.1419 16.0136 24.6042 16.9964C24.1419 17.9791 23.6355 18.9619 23.0852 19.9227ZM25.4554 18.9693C25.8516 19.952 26.1892 20.9348 26.468 21.8883C25.5067 22.123 24.4941 22.321 23.4448 22.475C23.8043 21.9103 24.1639 21.3309 24.5014 20.7368C24.839 20.1501 25.1545 19.556 25.4554 18.9693ZM18.0147 26.7948C17.3322 26.0908 16.6498 25.306 15.9747 24.4479C16.6351 24.4772 17.3102 24.4992 17.9927 24.4992C18.6824 24.4992 19.3649 24.4846 20.0326 24.4479C19.3722 25.306 18.6898 26.0908 18.0147 26.7948ZM12.5552 22.475C11.5132 22.321 10.5079 22.1303 9.54668 21.8956C9.81818 20.9495 10.1557 19.974 10.5373 18.9986C10.8382 19.5853 11.1537 20.1721 11.4986 20.7588C11.8435 21.3455 12.1957 21.9176 12.5552 22.475ZM17.978 7.21253C18.6604 7.91661 19.3428 8.70137 20.0179 9.55947C19.3575 9.53014 18.6824 9.50813 18 9.50813C17.3102 9.50813 16.6278 9.5228 15.9601 9.55947C16.6205 8.70137 17.3029 7.91661 17.978 7.21253ZM12.5479 11.5324C12.1883 12.0971 11.8288 12.6765 11.4912 13.2706C11.1537 13.8573 10.8382 14.4441 10.5373 15.0308C10.1411 14.048 9.80351 13.0652 9.52466 12.1118C10.4859 11.8844 11.4986 11.6864 12.5479 11.5324ZM5.90705 20.7148C3.30942 19.6073 1.62903 18.1552 1.62903 17.0037C1.62903 15.8522 3.30942 14.3927 5.90705 13.2926C6.53812 13.0212 7.22788 12.7792 7.93967 12.5518C8.35793 13.9893 8.90828 15.4855 9.59071 17.0184C8.91561 18.5439 8.37261 20.0327 7.96168 21.4629C7.23522 21.2355 6.54546 20.9862 5.90705 20.7148ZM9.85487 31.1954C8.85691 30.6233 8.42397 28.445 8.76152 25.6434C8.84224 24.954 8.97432 24.2279 9.13575 23.4871C10.574 23.8392 12.1443 24.1105 13.7954 24.2865C14.786 25.6434 15.8133 26.8755 16.8479 27.9537C14.4558 30.1759 12.2104 31.3934 10.6841 31.3934C10.3539 31.3861 10.075 31.3201 9.85487 31.1954ZM27.2605 25.6067C27.6054 28.4084 27.1798 30.5866 26.1892 31.166C25.969 31.298 25.6828 31.3567 25.3453 31.3567C23.8263 31.3567 21.5736 30.1466 19.1814 27.939C20.2087 26.8609 21.236 25.636 22.212 24.2792C23.8704 24.1032 25.4407 23.8318 26.8789 23.4725C27.0477 24.2132 27.1798 24.9246 27.2605 25.6067ZM30.0856 20.7148C29.4545 20.9862 28.7648 21.2282 28.053 21.4555C27.6347 20.018 27.0844 18.5219 26.402 16.989C27.077 15.4635 27.6201 13.9747 28.031 12.5445C28.7574 12.7719 29.4472 13.0212 30.0929 13.2926C32.6906 14.4 34.371 15.8522 34.371 17.0037C34.3636 18.1552 32.6832 19.6147 30.0856 20.7148Z" fill="#009DF8"/>
<path d="M17.9926 20.3554C19.8447 20.3554 21.346 18.8548 21.346 17.0037C21.346 15.1526 19.8447 13.652 17.9926 13.652C16.1405 13.652 14.6392 15.1526 14.6392 17.0037C14.6392 18.8548 16.1405 20.3554 17.9926 20.3554Z" fill="#009DF8"/>
</svg>

<svg xmlns="http://www.w3.org/2000/svg" width="36" height="34" fill="none"><path fill="#009DF8" d="M36 17.004c0-2.384-2.986-4.643-7.565-6.044 1.056-4.664.587-8.375-1.483-9.564-.477-.278-1.034-.41-1.643-.41V2.62c.337 0 .609.066.836.191.998.572 1.431 2.75 1.093 5.552-.08.69-.212 1.415-.374 2.156a35.565 35.565 0 0 0-4.66-.8 35.785 35.785 0 0 0-3.052-3.666c2.392-2.223 4.638-3.44 6.164-3.44V.978c-2.018 0-4.66 1.438-7.33 3.932-2.672-2.48-5.313-3.902-7.331-3.902v1.635c1.519 0 3.771 1.21 6.164 3.418a34.652 34.652 0 0 0-3.031 3.66 34.277 34.277 0 0 0-4.667.807A22.116 22.116 0 0 1 8.74 8.4c-.344-2.802.081-4.98 1.072-5.56.22-.132.506-.19.844-.19V1.015c-.617 0-1.174.132-1.659.41-2.062 1.189-2.524 4.893-1.46 9.543C2.972 12.376 0 14.628 0 17.004c0 2.383 2.987 4.642 7.565 6.043-1.056 4.665-.587 8.376 1.483 9.564.477.279 1.034.41 1.65.41 2.019 0 4.66-1.437 7.331-3.93 2.671 2.478 5.313 3.901 7.331 3.901.616 0 1.174-.132 1.658-.41 2.062-1.189 2.525-4.892 1.46-9.542C33.029 21.639 36 19.38 36 17.004Zm-9.554-4.892a33.05 33.05 0 0 1-.99 2.897 39.656 39.656 0 0 0-2.018-3.476 33.12 33.12 0 0 1 3.008.579Zm-3.36 7.81c-.573.99-1.16 1.93-1.77 2.802a38.22 38.22 0 0 1-6.618.008 40.464 40.464 0 0 1-1.776-2.787 38.23 38.23 0 0 1-1.526-2.92 39.088 39.088 0 0 1 3.287-5.728 38.18 38.18 0 0 1 6.62-.007 40.488 40.488 0 0 1 1.775 2.787c.558.961 1.064 1.937 1.526 2.92a41.102 41.102 0 0 1-1.519 2.926Zm2.37-.953c.396.983.733 1.966 1.012 2.92-.961.234-1.974.432-3.023.586.36-.565.719-1.144 1.056-1.738.338-.587.653-1.181.954-1.768Zm-7.441 7.826a30.212 30.212 0 0 1-2.04-2.347c.66.03 1.335.051 2.018.051.69 0 1.372-.014 2.04-.051a28.612 28.612 0 0 1-2.018 2.347Zm-5.46-4.32a33.113 33.113 0 0 1-3.008-.58c.271-.945.609-1.921.99-2.896.301.586.617 1.173.962 1.76s.697 1.159 1.056 1.716Zm5.423-15.262a30.248 30.248 0 0 1 2.04 2.346c-.66-.029-1.336-.05-2.018-.05a37.3 37.3 0 0 0-2.04.05 28.626 28.626 0 0 1 2.018-2.346Zm-5.43 4.32a40.489 40.489 0 0 0-2.01 3.498 31.444 31.444 0 0 1-1.013-2.92 35.63 35.63 0 0 1 3.023-.579Zm-6.641 9.182c-2.598-1.108-4.278-2.56-4.278-3.711 0-1.152 1.68-2.611 4.278-3.711a22.62 22.62 0 0 1 2.033-.741 35.217 35.217 0 0 0 1.65 4.466 34.714 34.714 0 0 0-1.628 4.445 22.3 22.3 0 0 1-2.055-.748Zm3.948 10.48c-.998-.572-1.431-2.75-1.093-5.552.08-.689.212-1.415.374-2.156 1.438.352 3.008.623 4.66.8a35.785 35.785 0 0 0 3.052 3.667c-2.392 2.222-4.638 3.44-6.164 3.44-.33-.008-.609-.074-.83-.199Zm17.406-5.588c.344 2.801-.081 4.98-1.072 5.559-.22.132-.506.19-.844.19-1.519 0-3.771-1.21-6.164-3.417a34.653 34.653 0 0 0 3.031-3.66 34.289 34.289 0 0 0 4.667-.806c.169.74.3 1.452.381 2.134Zm2.825-4.892a22.59 22.59 0 0 1-2.033.74 35.226 35.226 0 0 0-1.651-4.466 34.724 34.724 0 0 0 1.629-4.445c.726.228 1.416.477 2.062.749 2.598 1.107 4.278 2.56 4.278 3.71-.007 1.152-1.688 2.612-4.285 3.712Z"/><path fill="#009DF8" d="M17.993 20.355a3.353 3.353 0 1 0-3.354-3.351 3.353 3.353 0 0 0 3.354 3.351Z"/></svg>
